;FLAVOR:Marlin
;TIME:39201
;Filament used: 89.1908m
;Layer height: 0.28
;MINX:7.25
;MINY:7.889
;MINZ:0.28
;MAXX:342.75
;MAXY:337.051
;MAXZ:21.56
;Generated with Cura_SteamEngine 4.8.0
M140 S60
M105
M190 S60
M104 S210
M105
M109 S210
M82 ;absolute extrusion mode
M201 X500.00 Y500.00 Z100.00 E5000.00 ;Setup machine max acceleration
M203 X500.00 Y500.00 Z10.00 E50.00 ;Setup machine max feedrate
M204 P500.00 R1000.00 T500.00 ;Setup Print/Retract/Travel acceleration
M205 X8.00 Y8.00 Z0.40 E5.00 ;Setup Jerk
M220 S100 ;Reset Feedrate
M221 S100 ;Reset Flowrate

G28 ;Home
M420 S1 Z2 ;Enable ABL using saved Mesh and Fade Height

G92 E0 ;Reset Extruder
G1 Z2.0 F3000 ;Move Z Axis up
G1 X10.1 Y20 Z0.28 F5000.0 ;Move to start position
G1 X10.1 Y200.0 Z0.28 F1500.0 E15 ;Draw the first line
G1 X10.4 Y200.0 Z0.28 F5000.0 ;Move to side a little
G1 X10.4 Y20 Z0.28 F1500.0 E30 ;Draw the second line
G92 E0 ;Reset Extruder
G1 Z2.0 F3000 ;Move Z Axis up

G92 E0
G92 E0
G1 F1500 E-6.5
;LAYER_COUNT:76
;LAYER:0
M107
G1 F300 Z0.56
G0 F9000 X15.273 Y11.347 Z0.56
;TYPE:SKIRT
G1 F300 Z0.28
G1 F1500 E0
G1 F1800 X15.756 Y10.726 E0.04579
G1 X16.147 Y10.305 E0.07923
G1 X16.293 Y10.159 E0.09125
G1 X16.877 Y9.631 E0.13708
G1 X17.512 Y9.166 E0.18289
G1 X18.19 Y8.767 E0.22868
G1 X18.906 Y8.439 E0.27452
G1 X19.651 Y8.185 E0.32033
G1 X20.418 Y8.008 E0.36615
G1 X21.199 Y7.91 E0.41196
G1 X21.773 Y7.889 E0.44539
G1 X328.227 Y7.889 E18.28262
G1 X329.013 Y7.929 E18.32843
G1 X329.791 Y8.048 E18.37424
G1 X330.553 Y8.246 E18.42007
G1 X331.291 Y8.52 E18.46589
G1 X331.997 Y8.868 E18.5117
G1 X332.665 Y9.285 E18.55754
G1 X333.286 Y9.768 E18.60333
G1 X333.707 Y10.159 E18.63677
G1 X333.853 Y10.305 E18.64879
G1 X334.381 Y10.889 E18.69461
G1 X334.846 Y11.524 E18.74042
G1 X335.245 Y12.202 E18.78621
G1 X335.573 Y12.918 E18.83205
G1 X335.827 Y13.663 E18.87787
G1 X336.004 Y14.43 E18.92368
G1 X336.102 Y15.211 E18.9695
G1 X336.123 Y15.785 E19.00293
G1 X336.123 Y156.257 E27.17914
G1 X336.083 Y157.043 E27.22494
G1 X335.964 Y157.821 E27.27075
G1 X335.766 Y158.583 E27.31658
G1 X335.492 Y159.321 E27.3624
G1 X335.144 Y160.027 E27.40821
G1 X334.727 Y160.695 E27.45405
G1 X334.244 Y161.316 E27.49984
G1 X333.853 Y161.737 E27.53328
G1 X333.707 Y161.883 E27.5453
G1 X333.123 Y162.411 E27.59113
G1 X332.488 Y162.876 E27.63694
G1 X331.81 Y163.275 E27.68273
G1 X331.094 Y163.603 E27.72857
G1 X330.349 Y163.857 E27.77438
G1 X329.582 Y164.034 E27.8202
G1 X328.801 Y164.132 E27.86601
G1 X328.227 Y164.153 E27.89944
G1 X21.773 Y164.153 E45.73667
G1 X20.987 Y164.113 E45.78248
G1 X20.209 Y163.994 E45.82829
G1 X19.447 Y163.796 E45.87411
G1 X18.709 Y163.522 E45.91993
G1 X18.003 Y163.174 E45.96575
G1 X17.335 Y162.757 E46.01158
G1 X16.714 Y162.274 E46.05737
G1 X16.293 Y161.883 E46.09082
G1 X16.147 Y161.737 E46.10284
G1 X15.619 Y161.153 E46.14866
G1 X15.154 Y160.518 E46.19447
G1 X14.755 Y159.84 E46.24026
G1 X14.427 Y159.124 E46.2861
G1 X14.173 Y158.379 E46.33191
G1 X13.996 Y157.612 E46.37773
G1 X13.898 Y156.831 E46.42355
G1 X13.877 Y156.257 E46.45698
G1 X13.877 Y111.719 E49.04932
G1 X13.917 Y110.933 E49.09513
G1 X14.036 Y110.155 E49.14094
G1 X14.234 Y109.393 E49.18677
G1 X14.508 Y108.655 E49.23259
G1 X14.856 Y107.949 E49.2784
G1 X15.273 Y107.281 E49.32424
G1 X15.756 Y106.66 E49.37003
G1 X16.147 Y106.239 E49.40347
G1 X16.293 Y106.093 E49.41549
G1 X16.877 Y105.565 E49.46131
G1 X17.512 Y105.1 E49.50712
G1 X18.19 Y104.701 E49.55291
G1 X18.906 Y104.373 E49.59875
G1 X19.651 Y104.119 E49.64457
G1 X20.418 Y103.942 E49.69038
G1 X21.199 Y103.844 E49.7362
G1 X21.773 Y103.823 E49.76963
G1 X26.617 Y103.823 E50.05158
G1 X26.617 Y68.316 E52.11827
G1 X21.773 Y68.316 E52.40022
G1 X20.987 Y68.276 E52.44602
G1 X20.209 Y68.157 E52.49183
G1 X19.447 Y67.959 E52.53766
G1 X18.709 Y67.685 E52.58348
G1 X18.003 Y67.337 E52.62929
G1 X17.335 Y66.92 E52.67513
G1 X16.714 Y66.437 E52.72092
G1 X16.293 Y66.046 E52.75436
G1 X16.147 Y65.9 E52.76638
G1 X15.619 Y65.316 E52.81221
G1 X15.154 Y64.681 E52.85802
G1 X14.755 Y64.003 E52.90381
G1 X14.427 Y63.287 E52.94965
G1 X14.173 Y62.542 E52.99546
G1 X13.996 Y61.775 E53.04128
G1 X13.898 Y60.994 E53.08709
G1 X13.877 Y60.42 E53.12052
G1 X13.877 Y15.785 E55.71851
G1 X13.917 Y14.999 E55.76432
G1 X14.036 Y14.221 E55.81013
G1 X14.234 Y13.459 E55.85596
G1 X14.508 Y12.721 E55.90178
G1 X14.856 Y12.015 E55.94759
G1 X15.273 Y11.347 E55.99343
G0 F9000 X15.77 Y11.512
G1 F1800 X16.5 Y10.658 E56.05882
G1 X16.646 Y10.512 E56.07084
G1 X17.212 Y10.003 E56.11514
G1 X17.828 Y9.556 E56.15944
G1 X18.488 Y9.176 E56.20377
G1 X19.184 Y8.867 E56.2481
G1 X19.908 Y8.633 E56.29238
G1 X20.653 Y8.476 E56.3367
G1 X21.773 Y8.389 E56.40208
G1 X328.227 Y8.389 E74.23931
G1 X328.987 Y8.429 E74.28361
G1 X329.739 Y8.548 E74.32792
G1 X330.474 Y8.746 E74.37223
G1 X331.185 Y9.02 E74.41658
G1 X331.863 Y9.366 E74.46089
G1 X332.5 Y9.782 E74.50517
G1 X333.354 Y10.512 E74.57056
G1 X333.5 Y10.658 E74.58258
G1 X334.009 Y11.224 E74.62688
G1 X334.456 Y11.84 E74.67118
G1 X334.836 Y12.5 E74.71551
G1 X335.145 Y13.196 E74.75984
G1 X335.379 Y13.92 E74.80412
G1 X335.536 Y14.665 E74.84844
G1 X335.623 Y15.785 E74.91382
G1 X335.623 Y156.257 E83.09003
G1 X335.583 Y157.017 E83.13433
G1 X335.464 Y157.769 E83.17864
G1 X335.266 Y158.504 E83.22295
G1 X334.992 Y159.215 E83.2673
G1 X334.646 Y159.893 E83.3116
G1 X334.23 Y160.53 E83.35589
G1 X333.5 Y161.384 E83.42128
G1 X333.354 Y161.53 E83.4333
G1 X332.788 Y162.039 E83.4776
G1 X332.172 Y162.486 E83.5219
G1 X331.512 Y162.866 E83.56623
G1 X330.816 Y163.175 E83.61056
G1 X330.092 Y163.409 E83.65484
G1 X329.347 Y163.566 E83.69916
G1 X328.227 Y163.653 E83.76454
G1 X21.773 Y163.653 E101.60177
G1 X21.013 Y163.613 E101.64607
G1 X20.261 Y163.494 E101.69038
G1 X19.526 Y163.296 E101.73469
G1 X18.815 Y163.022 E101.77904
G1 X18.137 Y162.676 E101.82334
G1 X17.5 Y162.26 E101.86763
G1 X16.646 Y161.53 E101.93302
G1 X16.5 Y161.384 E101.94504
G1 X15.991 Y160.818 E101.98934
G1 X15.544 Y160.202 E102.03364
G1 X15.164 Y159.542 E102.07797
G1 X14.855 Y158.846 E102.1223
G1 X14.621 Y158.122 E102.16658
G1 X14.464 Y157.377 E102.2109
G1 X14.377 Y156.257 E102.27628
G1 X14.377 Y111.719 E104.86863
G1 X14.417 Y110.959 E104.91293
G1 X14.536 Y110.207 E104.95724
G1 X14.734 Y109.472 E105.00155
G1 X15.008 Y108.761 E105.0459
G1 X15.354 Y108.083 E105.0902
G1 X15.77 Y107.446 E105.13449
G1 X16.5 Y106.592 E105.19988
G1 X16.646 Y106.446 E105.2119
G1 X17.212 Y105.937 E105.2562
G1 X17.828 Y105.49 E105.3005
G1 X18.488 Y105.11 E105.34483
G1 X19.184 Y104.801 E105.38915
G1 X19.908 Y104.567 E105.43344
G1 X20.653 Y104.41 E105.47776
G1 X21.773 Y104.323 E105.54314
G1 X27.117 Y104.323 E105.85419
G1 X27.117 Y67.816 E107.97909
G1 X21.773 Y67.816 E108.29014
G1 X21.013 Y67.776 E108.33444
G1 X20.261 Y67.657 E108.37875
G1 X19.526 Y67.459 E108.42306
G1 X18.815 Y67.185 E108.46741
G1 X18.137 Y66.839 E108.51171
G1 X17.5 Y66.423 E108.556
G1 X16.646 Y65.693 E108.62139
G1 X16.5 Y65.547 E108.63341
G1 X15.991 Y64.981 E108.67771
G1 X15.544 Y64.365 E108.72201
G1 X15.164 Y63.705 E108.76634
G1 X14.855 Y63.009 E108.81066
G1 X14.621 Y62.285 E108.85495
G1 X14.464 Y61.54 E108.89927
G1 X14.377 Y60.42 E108.96465
G1 X14.377 Y15.785 E111.56264
G1 X14.417 Y15.025 E111.60694
G1 X14.536 Y14.273 E111.65125
G1 X14.734 Y13.538 E111.69556
G1 X15.008 Y12.827 E111.73991
G1 X15.354 Y12.149 E111.78422
G1 X15.77 Y11.512 E111.8285
G0 F9000 X16.267 Y11.682
G1 F1800 X16.854 Y11.012 E111.88035
G1 X17 Y10.866 E111.89236
G1 X17.547 Y10.376 E111.93511
G1 X18.144 Y9.948 E111.97786
G1 X18.784 Y9.587 E112.02063
G1 X19.459 Y9.298 E112.06337
G1 X20.162 Y9.084 E112.10614
G1 X20.884 Y8.948 E112.14891
G1 X21.773 Y8.889 E112.20077
G1 X328.227 Y8.889 E130.03799
G1 X328.96 Y8.929 E130.08072
G1 X329.685 Y9.048 E130.12348
G1 X330.393 Y9.246 E130.16627
G1 X331.075 Y9.519 E130.20903
G1 X331.723 Y9.865 E130.25179
G1 X332.33 Y10.279 E130.29456
G1 X333 Y10.866 E130.3464
G1 X333.146 Y11.012 E130.35842
G1 X333.636 Y11.559 E130.40117
G1 X334.064 Y12.156 E130.44392
G1 X334.425 Y12.796 E130.48669
G1 X334.714 Y13.471 E130.52943
G1 X334.928 Y14.174 E130.5722
G1 X335.064 Y14.896 E130.61496
G1 X335.123 Y15.785 E130.66682
G1 X335.123 Y156.257 E138.84303
G1 X335.083 Y156.99 E138.88576
G1 X334.964 Y157.715 E138.92852
G1 X334.766 Y158.423 E138.97131
G1 X334.493 Y159.105 E139.01407
G1 X334.147 Y159.753 E139.05682
G1 X333.733 Y160.36 E139.09959
G1 X333.146 Y161.03 E139.15144
G1 X333 Y161.176 E139.16346
G1 X332.453 Y161.666 E139.2062
G1 X331.856 Y162.094 E139.24896
G1 X331.216 Y162.455 E139.29173
G1 X330.541 Y162.744 E139.33446
G1 X329.838 Y162.958 E139.37724
G1 X329.116 Y163.094 E139.42
G1 X328.227 Y163.153 E139.47186
G1 X21.773 Y163.153 E157.30908
G1 X21.04 Y163.113 E157.35181
G1 X20.315 Y162.994 E157.39458
G1 X19.607 Y162.796 E157.43737
G1 X18.925 Y162.523 E157.48012
G1 X18.277 Y162.177 E157.52288
G1 X17.67 Y161.763 E157.56565
G1 X17 Y161.176 E157.61749
G1 X16.854 Y161.03 E157.62951
G1 X16.364 Y160.483 E157.67226
G1 X15.936 Y159.886 E157.71501
G1 X15.575 Y159.246 E157.75778
G1 X15.286 Y158.571 E157.80052
G1 X15.072 Y157.868 E157.84329
G1 X14.936 Y157.146 E157.88606
G1 X14.877 Y156.257 E157.93791
G1 X14.877 Y111.719 E160.53026
G1 X14.917 Y110.986 E160.57299
G1 X15.036 Y110.261 E160.61575
G1 X15.234 Y109.553 E160.65854
G1 X15.507 Y108.871 E160.7013
G1 X15.853 Y108.223 E160.74406
G1 X16.267 Y107.616 E160.78682
G1 X16.854 Y106.946 E160.83867
G1 X17 Y106.8 E160.85069
G1 X17.547 Y106.31 E160.89343
G1 X18.144 Y105.882 E160.93619
G1 X18.784 Y105.521 E160.97896
G1 X19.459 Y105.232 E161.02169
G1 X20.162 Y105.018 E161.06447
G1 X20.884 Y104.882 E161.10723
G1 X21.773 Y104.823 E161.15909
G1 X27.617 Y104.823 E161.49924
G1 X27.617 Y67.316 E163.68234
G1 X21.773 Y67.316 E164.02249
G1 X21.04 Y67.276 E164.06522
G1 X20.315 Y67.157 E164.10799
G1 X19.607 Y66.959 E164.15078
G1 X18.925 Y66.686 E164.19353
G1 X18.277 Y66.34 E164.23629
G1 X17.67 Y65.926 E164.27906
G1 X17 Y65.339 E164.3309
G1 X16.854 Y65.193 E164.34292
G1 X16.364 Y64.646 E164.38567
G1 X15.936 Y64.049 E164.42842
G1 X15.575 Y63.409 E164.47119
G1 X15.286 Y62.734 E164.51393
G1 X15.072 Y62.031 E164.5567
G1 X14.936 Y61.309 E164.59946
G1 X14.877 Y60.42 E164.65132
G1 X14.877 Y15.785 E167.24931
G1 X14.917 Y15.052 E167.29204
G1 X15.036 Y14.327 E167.3348
G1 X15.234 Y13.619 E167.3776
G1 X15.507 Y12.937 E167.42035
G1 X15.853 Y12.289 E167.46311
G1 X16.267 Y11.682 E167.50588
G0 F9000 X16.351 Y12.435
G1 F1800 X16.763 Y11.86 E167.54705
G1 X17.208 Y11.366 E167.58575
G1 X17.354 Y11.22 E167.59777
G1 X17.881 Y10.749 E167.63891
G1 X18.458 Y10.341 E167.68004
G1 X19.077 Y10 E167.72117
G1 X19.731 Y9.732 E167.76231
G1 X20.411 Y9.539 E167.80345
G1 X21.109 Y9.424 E167.84463
G1 X21.773 Y9.389 E167.88333
G1 X328.227 Y9.389 E185.72056
G1 X328.933 Y9.429 E185.76172
G1 X329.629 Y9.548 E185.80282
G1 X330.308 Y9.746 E185.84398
G1 X330.96 Y10.018 E185.8851
G1 X331.577 Y10.363 E185.92625
G1 X332.152 Y10.775 E185.96742
G1 X332.646 Y11.22 E186.00612
G1 X332.792 Y11.366 E186.01814
G1 X333.263 Y11.893 E186.05928
G1 X333.671 Y12.47 E186.10041
G1 X334.012 Y13.089 E186.14154
G1 X334.28 Y13.743 E186.18268
G1 X334.473 Y14.423 E186.22383
G1 X334.588 Y15.121 E186.265
G1 X334.623 Y15.785 E186.3037
G1 X334.623 Y156.257 E194.47991
G1 X334.583 Y156.963 E194.52107
G1 X334.464 Y157.659 E194.56217
G1 X334.266 Y158.338 E194.60333
G1 X333.994 Y158.99 E194.64445
G1 X333.649 Y159.607 E194.6856
G1 X333.237 Y160.182 E194.72677
G1 X332.792 Y160.676 E194.76547
G1 X332.646 Y160.822 E194.77749
G1 X332.119 Y161.293 E194.81863
G1 X331.542 Y161.701 E194.85976
G1 X330.923 Y162.042 E194.90089
G1 X330.269 Y162.31 E194.94203
G1 X329.589 Y162.503 E194.98318
G1 X328.891 Y162.618 E195.02435
G1 X328.227 Y162.653 E195.06305
G1 X21.773 Y162.653 E212.90028
G1 X21.067 Y162.613 E212.94144
G1 X20.371 Y162.494 E212.98254
G1 X19.692 Y162.296 E213.02371
G1 X19.04 Y162.024 E213.06482
G1 X18.423 Y161.679 E213.10597
G1 X17.848 Y161.267 E213.14714
G1 X17.354 Y160.822 E213.18584
G1 X17.208 Y160.676 E213.19786
G1 X16.737 Y160.149 E213.239
G1 X16.329 Y159.572 E213.28013
G1 X15.988 Y158.953 E213.32127
G1 X15.72 Y158.299 E213.3624
G1 X15.527 Y157.619 E213.40355
G1 X15.412 Y156.921 E213.44472
G1 X15.377 Y156.257 E213.48342
G1 X15.377 Y111.719 E216.07577
G1 X15.417 Y111.013 E216.11693
G1 X15.536 Y110.317 E216.15803
G1 X15.734 Y109.638 E216.19919
G1 X16.006 Y108.986 E216.24031
G1 X16.351 Y108.369 E216.28146
G1 X16.763 Y107.794 E216.32263
G1 X17.208 Y107.3 E216.36133
G1 X17.354 Y107.154 E216.37335
G1 X17.881 Y106.683 E216.41449
G1 X18.458 Y106.275 E216.45562
G1 X19.077 Y105.934 E216.49676
G1 X19.731 Y105.666 E216.53789
G1 X20.411 Y105.473 E216.57904
G1 X21.109 Y105.358 E216.62021
G1 X21.773 Y105.323 E216.65891
G1 X28.117 Y105.323 E217.02817
G1 X28.117 Y66.816 E219.26948
G1 X21.773 Y66.816 E219.63873
G1 X21.067 Y66.776 E219.67989
G1 X20.371 Y66.657 E219.72099
G1 X19.692 Y66.459 E219.76216
G1 X19.04 Y66.187 E219.80328
G1 X18.423 Y65.842 E219.84442
G1 X17.848 Y65.43 E219.88559
G1 X17.354 Y64.985 E219.92429
G1 X17.208 Y64.839 E219.93631
G1 X16.737 Y64.312 E219.97745
G1 X16.329 Y63.735 E220.01858
G1 X15.988 Y63.116 E220.05972
G1 X15.72 Y62.462 E220.10086
G1 X15.527 Y61.782 E220.142
G1 X15.412 Y61.084 E220.18317
G1 X15.377 Y60.42 E220.22188
G1 X15.377 Y15.785 E222.81987
G1 X15.417 Y15.079 E222.86102
G1 X15.536 Y14.383 E222.90212
G1 X15.734 Y13.704 E222.94329
G1 X16.006 Y13.052 E222.98441
G1 X16.351 Y12.435 E223.02556
G0 F9000 X16.849 Y12.587
G1 F1800 X17.258 Y12.046 E223.06503
G1 X17.561 Y11.719 E223.09098
G1 X17.707 Y11.573 E223.103
G1 X18.214 Y11.123 E223.14245
G1 X18.77 Y10.735 E223.18192
G1 X19.368 Y10.416 E223.22137
G1 X20 Y10.169 E223.26086
G1 X20.656 Y9.999 E223.30031
G1 X21.327 Y9.906 E223.33974
G1 X21.773 Y9.889 E223.36571
G1 X328.227 Y9.889 E241.20294
G1 X328.904 Y9.929 E241.24241
G1 X329.571 Y10.048 E241.28185
G1 X330.22 Y10.245 E241.32133
G1 X330.841 Y10.517 E241.36079
G1 X331.425 Y10.861 E241.40024
G1 X331.966 Y11.27 E241.43971
G1 X332.293 Y11.573 E241.46566
G1 X332.439 Y11.719 E241.47768
G1 X332.889 Y12.226 E241.51714
G1 X333.277 Y12.782 E241.5566
G1 X333.596 Y13.38 E241.59605
G1 X333.843 Y14.012 E241.63554
G1 X334.013 Y14.668 E241.67499
G1 X334.106 Y15.339 E241.71442
G1 X334.123 Y15.785 E241.7404
G1 X334.123 Y156.257 E249.9166
G1 X334.083 Y156.934 E249.95608
G1 X333.964 Y157.601 E249.99551
G1 X333.767 Y158.25 E250.03499
G1 X333.495 Y158.871 E250.07445
G1 X333.151 Y159.455 E250.1139
G1 X332.742 Y159.996 E250.15338
G1 X332.439 Y160.323 E250.17932
G1 X332.293 Y160.469 E250.19134
G1 X331.786 Y160.919 E250.2308
G1 X331.23 Y161.307 E250.27026
G1 X330.632 Y161.626 E250.30971
G1 X330 Y161.873 E250.34921
G1 X329.344 Y162.043 E250.38865
G1 X328.673 Y162.136 E250.42808
G1 X328.227 Y162.153 E250.45406
G1 X21.773 Y162.153 E268.29129
G1 X21.096 Y162.113 E268.33076
G1 X20.429 Y161.994 E268.37019
G1 X19.78 Y161.797 E268.40967
G1 X19.159 Y161.525 E268.44913
G1 X18.575 Y161.181 E268.48858
G1 X18.034 Y160.772 E268.52806
G1 X17.707 Y160.469 E268.55401
G1 X17.561 Y160.323 E268.56602
G1 X17.111 Y159.816 E268.60548
G1 X16.723 Y159.26 E268.64494
G1 X16.404 Y158.662 E268.68439
G1 X16.157 Y158.03 E268.72389
G1 X15.987 Y157.374 E268.76333
G1 X15.894 Y156.703 E268.80276
G1 X15.877 Y156.257 E268.82874
G1 X15.877 Y111.719 E271.42109
G1 X15.917 Y111.042 E271.46056
G1 X16.036 Y110.375 E271.49999
G1 X16.233 Y109.726 E271.53947
G1 X16.505 Y109.105 E271.57893
G1 X16.849 Y108.521 E271.61838
G1 X17.258 Y107.98 E271.65786
G1 X17.561 Y107.653 E271.68381
G1 X17.707 Y107.507 E271.69582
G1 X18.214 Y107.057 E271.73528
G1 X18.77 Y106.669 E271.77474
G1 X19.368 Y106.35 E271.81419
G1 X20 Y106.103 E271.85369
G1 X20.656 Y105.933 E271.89313
G1 X21.327 Y105.84 E271.93256
G1 X21.773 Y105.823 E271.95854
G1 X28.617 Y105.823 E272.3569
G1 X28.617 Y66.316 E274.65641
G1 X21.773 Y66.316 E275.05477
G1 X21.096 Y66.276 E275.09424
G1 X20.429 Y66.157 E275.13368
G1 X19.78 Y65.96 E275.17315
G1 X19.159 Y65.688 E275.21262
G1 X18.575 Y65.344 E275.25207
G1 X18.034 Y64.935 E275.29154
G1 X17.707 Y64.632 E275.31749
G1 X17.561 Y64.486 E275.32951
G1 X17.111 Y63.979 E275.36896
G1 X16.723 Y63.423 E275.40843
G1 X16.404 Y62.825 E275.44788
